web/app/static/svg/logo.svg

<svg height="28" viewBox="0 0 67 28" width="67" xmlns="http://www.w3.org/2000/svg"><g fill="none" fill-rule="evenodd"><path d="m34.7020589 3.40472516v24.06790714h1.6978756v-27.08606913h-2.5468134l-5.6338598 23.95182393-5.6724479-23.95182393h-2.5468134v27.08606913h1.5821113v-23.99051838l5.711036 23.95182398h1.7750518zm5.2232362-3.01816199v27.08606913h3.0098704v-10.6796501h2.6625776c4.283277 0 6.2898572-2.2442743 6.2898572-6.539351v-3.25032829c0-4.10160475-1.8136398-6.61673974-6.0583287-6.61673974zm3.0098704 13.69781213v-10.95051084h2.8941061c2.1995206 0 3.0870465 1.23822031 3.0870465 3.71466091v3.59857773c0 2.5925238-1.0804663 3.6372722-3.318575 3.6372722z"/><g transform="translate(50 1)"><path d="m10.9295795.41180331 1.4004705 2.77921569 2.7792942 1.40054902c.3697255.18486274.5170196.63756863.3320784 1.00729412-.0752157.14886274-.1943529.26164706-.3320784.33215686l-2.7792942 1.40054902-1.4004705 2.77921568c-.1847844.3697255-.6376471.5185882-1.00737259.3321569-.14878432-.0752157-.26156863-.1942745-.33207843-.3321569l-1.3989804-2.77921568-2.77937254-1.40054902c-.36972549-.18643137-.51694118-.63764706-.332-1.00737255.07521568-.14878431.19435294-.26156863.332-.33207843l2.77937254-1.40054902 1.3989804-2.77921569c.18643137-.36972549.63764702-.51694117 1.00737252-.33207843.1487843.07364706.2616471.19270589.3320785.33207843zm.1723137 3.67529412-.8414118-1.67003921-.84125488 1.67003921c-.07050981.13788235-.18337255.25694118-.33215687.33215686l-1.67152941.84125491 1.67152941.84290196c.13788236.0705098.25694118.18329411.33215687.33207843l.84125488 1.67160784.8414118-1.67160784c.0704314-.13788235.1832941-.25694118.332-.33207843l1.6716078-.84290196-1.6716078-.84125491c-.1377255-.0705098-.2567843-.18329411-.332-.33215686z"/><path d="m7.72183784 21.0888649h-3.0887027v-3.0888649h-1.54443244v3.0888649h-3.0887027v1.5444324h3.0887027v3.0888649h1.54443244v-3.0888649h3.0887027z"/><path d="m16.5211819 16.6881128h-2.6879717v-2.6881128h-1.3440564v2.6881128h-2.68797166v1.3440564h2.68797166v2.6881128h1.3440564v-2.6881128h2.6879717z"/></g><g transform="translate(0 2)"><path d="m5.92957946 8.41180331 1.40047059 2.77921569 2.77929415 1.400549c.3697255.1848628.5170196.6375686.3320784 1.0072941-.0752157.1488628-.1943529.2616471-.3320784.3321569l-2.77929415 1.400549-1.40047059 2.7792157c-.18478432.3697255-.63764706.5185882-1.00737255.3321569-.14878432-.0752157-.26156863-.1942745-.33207843-.3321569l-1.3989804-2.7792157-2.77937254-1.400549c-.36972549-.1864314-.51694118-.6376471-.332-1.0073725.07521568-.1487844.19435294-.2615687.332-.3320785l2.77937254-1.400549 1.3989804-2.77921569c.18643137-.36972549.63764706-.51694117 1.00737255-.33207843.14878431.07364706.26164705.19270588.33207843.33207843zm.17231372 3.67529409-.84141176-1.6700392-.8412549 1.6700392c-.07050981.1378824-.18337255.2569412-.33215687.3321569l-1.67152941.8412549 1.67152941.842902c.13788236.0705098.25694118.1832941.33215687.3320784l.8412549 1.6716078.84141176-1.6716078c.07043138-.1378824.18329412-.2569412.332-.3320784l1.67160785-.842902-1.67160785-.8412549c-.13772549-.0705098-.25678431-.1832941-.332-.3321569z"/><path d="m16.7218378 3.08886486h-3.0887027v-3.08886486h-1.5444324v3.08886486h-3.0887027v1.54443244h3.0887027v3.08886486h1.5444324v-3.08886486h3.0887027z"/><path d="m15.7199998 19.288096h-2.2879759v-2.288096h-1.144048v2.288096h-2.2879759v1.144048h2.2879759v2.288096h1.144048v-2.288096h2.2879759z"/></g></g></svg>

<svg width="67px" height="28px" viewBox="0 0 67 28" xmlns="http://www.w3.org/2000/svg">
    <g fill="currentColor" stroke="none" stroke-width="1" fill="none" fill-rule="evenodd">
        <path d="M34.7020589,3.40472516 L34.7020589,27.4726323 L36.3999345,27.4726323 L36.3999345,0.38656317 L33.8531211,0.38656317 L28.2192613,24.3383871 L22.5468134,0.38656317 L20,0.38656317 L20,27.4726323 L21.5821113,27.4726323 L21.5821113,3.48211392 L27.2931473,27.4339379 L29.0681991,27.4339379 L34.7020589,3.40472516 Z M39.9252951,0.38656317 L39.9252951,27.4726323 L42.9351655,27.4726323 L42.9351655,16.7929822 L45.5977431,16.7929822 C49.8810201,16.7929822 51.8876003,14.5487079 51.8876003,10.2536312 L51.8876003,7.00330291 C51.8876003,2.90169816 50.0739605,0.38656317 45.8292716,0.38656317 L39.9252951,0.38656317 Z M42.9351655,14.0843753 L42.9351655,3.13386446 L45.8292716,3.13386446 C48.0287922,3.13386446 48.9163181,4.37208477 48.9163181,6.84852537 L48.9163181,10.4471031 C48.9163181,13.0396269 47.8358518,14.0843753 45.5977431,14.0843753 L42.9351655,14.0843753 Z"></path>
        <g id="logo-sparkle-1" transform="translate(50.000000, 1.000000)">
            <path d="M10.9295795,0.411803314 L12.33005,3.191019 L15.1093442,4.59156802 C15.4790697,4.77643076 15.6263638,5.22913665 15.4414226,5.59886214 C15.3662069,5.74772488 15.2470697,5.8605092 15.1093442,5.931019 L12.33005,7.33156802 L10.9295795,10.1107837 C10.7447951,10.4805092 10.2919324,10.6293719 9.92220691,10.4429406 C9.77342259,10.3677249 9.66063828,10.2486661 9.59012848,10.1107837 L8.19114808,7.33156802 L5.41177554,5.931019 C5.04205005,5.74458763 4.89483436,5.29337194 5.07977554,4.92364645 C5.15499122,4.77486214 5.27412848,4.66207782 5.41177554,4.59156802 L8.19114808,3.191019 L9.59012848,0.411803314 C9.77655985,0.0420778234 10.2277755,-0.105137863 10.597501,0.0797248822 C10.7462853,0.153371941 10.8591481,0.272430765 10.9295795,0.411803314 L10.9295795,0.411803314 L10.9295795,0.411803314 Z M11.1018932,4.08709743 L10.2604814,2.41705822 L9.41922652,4.08709743 C9.34871671,4.22497978 9.23585397,4.34403861 9.08706965,4.41925429 L7.41554024,5.2605092 L9.08706965,6.10341116 C9.22495201,6.17392096 9.34401083,6.28670527 9.41922652,6.43548959 L10.2604814,8.10709743 L11.1018932,6.43548959 C11.1723246,6.29760724 11.2851873,6.17854841 11.4338932,6.10341116 L13.105501,5.2605092 L11.4338932,4.41925429 C11.2961677,4.34874449 11.1771089,4.23596018 11.1018932,4.08709743 L11.1018932,4.08709743 Z"></path>
            <polygon id="Shape" points="7.72183784 21.0888649 4.63313514 21.0888649 4.63313514 18 3.0887027 18 3.0887027 21.0888649 0 21.0888649 0 22.6332973 3.0887027 22.6332973 3.0887027 25.7221622 4.63313514 25.7221622 4.63313514 22.6332973 7.72183784 22.6332973"></polygon>
            <polygon id="Shape-Copy" points="16.5211819 16.6881128 13.8332102 16.6881128 13.8332102 14 12.4891538 14 12.4891538 16.6881128 9.80118214 16.6881128 9.80118214 18.0321692 12.4891538 18.0321692 12.4891538 20.720282 13.8332102 20.720282 13.8332102 18.0321692 16.5211819 18.0321692"></polygon>
        </g>
        <g id="logo-sparkle-2" transform="translate(0.000000, 2.000000)">
            <path d="M5.92957946,8.41180331 L7.33005005,11.191019 L10.1093442,12.591568 C10.4790697,12.7764308 10.6263638,13.2291366 10.4414226,13.5988621 C10.3662069,13.7477249 10.2470697,13.8605092 10.1093442,13.931019 L7.33005005,15.331568 L5.92957946,18.1107837 C5.74479514,18.4805092 5.2919324,18.6293719 4.92220691,18.4429406 C4.77342259,18.3677249 4.66063828,18.2486661 4.59012848,18.1107837 L3.19114808,15.331568 L0.411775536,13.931019 C0.0420500456,13.7445876 -0.105165641,13.2933719 0.0797755358,12.9236465 C0.154991222,12.7748621 0.274128477,12.6620778 0.411775536,12.591568 L3.19114808,11.191019 L4.59012848,8.41180331 C4.77655985,8.04207782 5.22777554,7.89486214 5.59750103,8.07972488 C5.74628534,8.15337194 5.85914808,8.27243076 5.92957946,8.41180331 L5.92957946,8.41180331 L5.92957946,8.41180331 Z M6.10189318,12.0870974 L5.26048142,10.4170582 L4.41922652,12.0870974 C4.34871671,12.2249798 4.23585397,12.3440386 4.08706965,12.4192543 L2.41554024,13.2605092 L4.08706965,14.1034112 C4.22495201,14.173921 4.34401083,14.2867053 4.41922652,14.4354896 L5.26048142,16.1070974 L6.10189318,14.4354896 C6.17232456,14.2976072 6.2851873,14.1785484 6.43389318,14.1034112 L8.10550103,13.2605092 L6.43389318,12.4192543 C6.29616769,12.3487445 6.17710887,12.2359602 6.10189318,12.0870974 L6.10189318,12.0870974 Z"></path>
            <polygon id="Shape-Copy-3" points="16.7218378 3.08886486 13.6331351 3.08886486 13.6331351 0 12.0887027 0 12.0887027 3.08886486 9 3.08886486 9 4.6332973 12.0887027 4.6332973 12.0887027 7.72216216 13.6331351 7.72216216 13.6331351 4.6332973 16.7218378 4.6332973"></polygon>
            <polygon id="Shape-Copy-4" points="15.7199998 19.288096 13.4320239 19.288096 13.4320239 17 12.2879759 17 12.2879759 19.288096 10 19.288096 10 20.432144 12.2879759 20.432144 12.2879759 22.72024 13.4320239 22.72024 13.4320239 20.432144 15.7199998 20.432144"></polygon>
        </g>
    </g>
</svg>
